X:114
T:Jessy The Flower of Dunblane
S:John Moore's Book 2
Z:Transcribed by Steve Mansfield 05/2021
%%VWML: Moore2-4494-p89-0
F:http://www.vwml.org/record/Moore2/4494/p89
M:6/8
L:1/8
K:D
(d/e/) | f>gf e>af | d>cd e>cd/B/ | A>BA FAd | def {g}e2d/e/ | 
f>gf e>af | d>cd e>cd/B/ | A>BA F<Ad | e>Bc d3 ||
f | f>de fba | fde fde | e>cd e<bf | e<cB {B}A2 A/d/ | 
d>fe f<de | f>af g<ef | g>ab a<fd | e>Bc d2 d/B/ | 
A>BA F>A (d/e/) | f>af ge<f | f>ab a<fd | e>Bc d2 ||

